;Generated by Cura LulzBot Edition GCodeWriter Version: 3.6.8
;FLAVOR:Marlin
;TIME:18451
;Filament used: 14.8169m
;Layer height: 0.25
;Generated with Cura_SteamEngine 3.6.8
M82 ;absolute extrusion mode
M221 S100
;This G-Code has been generated specifically for the LulzBot TAZ 6 with standard extruder
M73 P0 ; clear GLCD progress bar
M75 ; start GLCD timer
G26 ; clear potential 'probe fail' condition
M107 ; disable fans
M420 S0 ; disable previous leveling matrix
G90 ; absolute positioning
M82 ; set extruder to absolute mode
G92 E0 ; set extruder position to 0
M140 S60 ; start bed heating up
M109 R140 ; soften filament before homing Z
G28 ; Home all axis
G1 E-30 F100 ; retract filament
M109 R140 ; wait for extruder to reach wiping temp
G1 X-15 Y100 F3000 ; move above wiper pad
G1 Z1 ; push nozzle into wiper
G1 X-17 Y95 F1000 ; slow wipe
G1 X-17 Y90 F1000 ; slow wipe
G1 X-17 Y85 F1000 ; slow wipe
G1 X-15 Y90 F1000 ; slow wipe
G1 X-17 Y80 F1000 ; slow wipe
G1 X-15 Y95 F1000 ; slow wipe
G1 X-17 Y75 F2000 ; fast wipe
G1 X-15 Y65 F2000 ; fast wipe
G1 X-17 Y70 F2000 ; fast wipe
G1 X-15 Y60 F2000 ; fast wipe
G1 X-17 Y55 F2000 ; fast wipe
G1 X-15 Y50 F2000 ; fast wipe
G1 X-17 Y40 F2000 ; fast wipe
G1 X-15 Y45 F2000 ; fast wipe
G1 X-17 Y35 F2000 ; fast wipe
G1 X-15 Y40 F2000 ; fast wipe
G1 X-17 Y70 F2000 ; fast wipe
G1 X-15 Y30 Z2 F2000 ; fast wipe
G1 X-17 Y35 F2000 ; fast wipe
G1 X-15 Y25 F2000 ; fast wipe
G1 X-17 Y30 F2000 ; fast wipe
G1 X-15 Y25 Z1.5 F1000 ; slow wipe
G1 X-17 Y23 F1000 ; slow wipe
G1 Z10 ; raise extruder
M109 R140 ; wait for extruder to reach probe temp
G1 X-9 Y-9 ; move above first probe point
M204 S100 ; set probing acceleration
G29 ; start auto-leveling sequence
M420 S1 ; activate bed level matrix
M425 Z			     ; use measured Z backlash for compensation
M425 Z F0		     ; turn off measured Z backlash compensation. (if activated in the quality settings, this command will automatically be ignored)
M204 S500 ; restore standard acceleration
G1 X0 Y0 Z15 F5000 ; move up off last probe point
G4 S1 ; pause
M400 ; wait for moves to finish
M117 Heating... ; progress indicator message on LCD
M109 R210 ; wait for extruder to reach printing temp
M190 S60 ; wait for bed to reach printing temp
G1 Z2 E0 F75 ; prime tiny bit of filament into the nozzle
M117 TAZ 6 Printing... ; progress indicator message on LCD

G92 E0
G1 F600 E-1
;LAYER_COUNT:252
;LAYER:0
M107
G0 F2625 X133.312 Y95.153 Z0.425
;TYPE:SKIRT
G1 F600 E0
G1 F900 X133.699 Y94.822 E0.01696
G1 X134.134 Y94.556 E0.03395
G1 X134.663 Y94.342 E0.05296
G1 X141.135 Y92.37 E0.27833
G1 X141.632 Y92.26 E0.29528
G1 X142.141 Y92.23 E0.31227
G1 X142.648 Y92.279 E0.32923
G1 X143.141 Y92.406 E0.34619
G1 X143.608 Y92.61 E0.36317
G1 X144.038 Y92.884 E0.38015
G1 X144.378 Y93.179 E0.39515
G1 X188.484 Y137.22 E2.47136
G1 X188.515 Y137.251 E2.47282
G1 X188.983 Y137.731 E2.49515
G1 X189.309 Y138.123 E2.51213
G1 X189.57 Y138.56 E2.52909
G1 X189.759 Y139.034 E2.54609
G1 X189.872 Y139.53 E2.56303
G1 X189.906 Y140.039 E2.58002
G1 X189.86 Y140.546 E2.59698
G1 X189.735 Y141.04 E2.61396
G1 X189.535 Y141.509 E2.63094
G1 X189.263 Y141.94 E2.64792
G1 X188.954 Y142.298 E2.66367
G1 X144.431 Y186.821 E4.76106
G1 X144.044 Y187.152 E4.77802
G1 X143.609 Y187.418 E4.795
G1 X143.139 Y187.613 E4.81195
G1 X142.643 Y187.733 E4.82895
G1 X142.135 Y187.773 E4.84593
G1 X141.627 Y187.733 E4.8629
G1 X141.194 Y187.634 E4.8777
G1 X134.68 Y185.668 E5.10435
G1 X134.205 Y185.483 E5.12133
G1 X133.765 Y185.226 E5.1383
G1 X133.32 Y184.855 E5.1576
G1 X90.946 Y142.459 E7.15427
G1 X90.615 Y142.071 E7.17126
G1 X90.349 Y141.637 E7.18822
G1 X90.154 Y141.166 E7.2052
G1 X90.035 Y140.67 E7.22219
G1 X89.995 Y140.161 E7.23919
G1 X89.995 Y139.818 E7.25062
G1 X90.035 Y139.31 E7.26759
G1 X90.154 Y138.815 E7.28455
G1 X90.349 Y138.344 E7.30153
G1 X90.615 Y137.909 E7.31852
G1 X90.947 Y137.52 E7.33555
G1 X133.312 Y95.153 E9.33133
G1 F600 E8.33133
G0 F2625 X135.747 Y97.653
;TYPE:SUPPORT
G1 F600 E9.33133
G1 F900 X135.809 Y97.625 E9.33359
G1 X136.26 Y97.604 E9.34863
G1 X136.353 Y98.107 E9.36567
G1 X136.655 Y98.408 E9.37988
G1 X136.215 Y98.848 E9.4006
G1 X136.215 Y100.506 E9.45583
G1 X175.708 Y140 E11.31629
G1 X136.247 Y179.463 E13.17527
G1 X136.247 Y181.121 E13.23049
G1 X136.693 Y181.567 E13.2515
G1 X136.437 Y181.824 E13.26359
G1 X136.357 Y182.349 E13.28128
G1 X135.826 Y182.378 E13.29899
G1 X135.752 Y182.35 E13.30163
G1 X93.485 Y140.066 E15.29314
G1 X93.485 Y139.917 E15.2981
G1 X135.747 Y97.653 E17.28903
G0 F2625 X135.33 Y98.353
G1 F900 X136.318 Y98.353 E17.32194
G1 F600 E16.32194
G0 F2625 X135.027 Y98.656
G1 F600 E17.32194
G1 F900 X135.027 Y181.341 E20.0762
G0 F2625 X135.388 Y181.703
G1 F900 X136.276 Y181.703 E20.10578
G1 F600 E19.10578
G0 F2625 X136.047 Y180.036
G1 F600 E20.10578
G1 F900 X133.721 Y180.036 E20.18326
G0 F2625 X133.36 Y179.674
G1 F900 X133.36 Y100.323 E22.82647
G0 F2625 X133.663 Y100.02
G1 F900 X136.015 Y100.02 E22.90482
G1 F600 E21.90482
G0 F2625 X136.694 Y101.269
G1 F600 E22.90482
G1 F900 X136.694 Y178.732 E25.48514
G0 F2625 X137.056 Y178.369
G1 F900 X132.055 Y178.369 E25.65173
G0 F2625 X131.693 Y178.006
G1 F900 X131.693 Y101.99 E28.18385
G0 F2625 X131.996 Y101.687
G1 F900 X137.113 Y101.687 E28.3543
G1 F600 E27.3543
G0 F2625 X138.361 Y102.936
G1 F600 E28.3543
G1 F900 X138.361 Y177.065 E30.82356
G0 F2625 X138.723 Y176.702
G1 F900 X130.388 Y176.702 E31.1012
G0 F2625 X130.026 Y176.338
G1 F900 X130.026 Y103.657 E33.52223
G0 F2625 X130.329 Y103.354
G1 F900 X138.78 Y103.354 E33.80374
G1 F600 E32.80374
G0 F2625 X140.028 Y104.603
G1 F600 E33.80374
G1 F900 X140.028 Y175.398 E36.16194
G0 F2625 X140.39 Y175.035
G1 F900 X128.721 Y175.035 E36.55064
G0 F2625 X128.359 Y174.671
G1 F900 X128.359 Y105.324 E38.86062
G0 F2625 X128.662 Y105.021
G1 F900 X140.447 Y105.021 E39.25318
G1 F600 E38.25318
G0 F2625 X141.695 Y106.27
G1 F600 E39.25318
G1 F900 X141.695 Y173.731 E41.50033
G0 F2625 X142.057 Y173.368
G1 F900 X127.055 Y173.368 E42.00005
G0 F2625 X126.692 Y173.003
G1 F900 X126.692 Y106.991 E44.19893
G0 F2625 X126.995 Y106.688
G1 F900 X142.114 Y106.688 E44.70255
G1 F600 E43.70255
G0 F2625 X143.362 Y107.937
G1 F600 E44.70255
G1 F900 X143.362 Y172.064 E46.83865
G0 F2625 X143.724 Y171.701
G1 F900 X125.388 Y171.701 E47.44943
G0 F2625 X125.025 Y171.335
G1 F900 X125.025 Y108.658 E49.53722
G0 F2625 X125.328 Y108.355
G1 F900 X143.781 Y108.355 E50.1519
G1 F600 E49.1519
G0 F2625 X145.029 Y109.604
G1 F600 E50.1519
G1 F900 X145.029 Y170.397 E52.17693
G0 F2625 X145.391 Y170.034
G1 F900 X123.722 Y170.034 E52.89873
G0 F2625 X123.358 Y169.668
G1 F900 X123.358 Y110.325 E54.87547
G0 F2625 X123.661 Y110.022
G1 F900 X145.448 Y110.022 E55.6012
G1 F600 E54.6012
G0 F2625 X146.696 Y111.271
G1 F600 E55.6012
G1 F900 X146.696 Y168.73 E57.51518
G0 F2625 X147.058 Y168.367
G1 F900 X122.056 Y168.367 E58.34801
G0 F2625 X121.691 Y168
G1 F900 X121.691 Y111.992 E60.21366
G0 F2625 X121.994 Y111.689
G1 F900 X147.115 Y111.689 E61.05045
G1 F600 E60.05045
G0 F2625 X148.363 Y112.938
G1 F600 E61.05045
G1 F900 X148.363 Y167.063 E62.85337
G0 F2625 X148.725 Y166.7
G1 F900 X120.389 Y166.7 E63.79725
G0 F2625 X120.024 Y166.332
G1 F900 X120.024 Y113.659 E65.55181
G0 F2625 X120.328 Y113.356
G1 F900 X148.782 Y113.356 E66.49962
G1 F600 E65.49962
G0 F2625 X150.03 Y114.605
G1 F600 E66.49962
G1 F900 X150.03 Y165.396 E68.19149
G0 F2625 X150.392 Y165.033
G1 F900 X118.723 Y165.033 E69.24639
G0 F2625 X118.357 Y164.665
G1 F900 X118.357 Y115.326 E70.88989
G0 F2625 X118.661 Y115.023
G1 F900 X150.449 Y115.023 E71.94876
G1 F600 E70.94876
G0 F2625 X151.697 Y116.272
G1 F600 E71.94876
G1 F900 X151.697 Y163.729 E73.52957
G0 F2625 X152.059 Y163.366
G1 F900 X117.057 Y163.366 E74.6955
G0 F2625 X116.69 Y162.997
G1 F900 X116.69 Y116.993 E76.22791
G0 F2625 X116.994 Y116.69
G1 F900 X152.116 Y116.69 E77.39784
G1 F600 E76.39784
G0 F2625 X153.364 Y117.939
G1 F600 E77.39784
G1 F900 X153.364 Y162.062 E78.86759
G0 F2625 X153.726 Y161.699
G1 F900 X115.39 Y161.699 E80.14458
G0 F2625 X115.023 Y161.33
G1 F900 X115.023 Y118.66 E81.56593
G0 F2625 X115.327 Y118.357
G1 F900 X153.783 Y118.357 E82.84691
G1 F600 E81.84691
G0 F2625 X155.031 Y119.606
G1 F600 E82.84691
G1 F900 X155.031 Y160.395 E84.20561
G0 F2625 X155.393 Y160.032
G1 F900 X113.724 Y160.032 E85.59362
G0 F2625 X113.356 Y159.662
G1 F900 X113.356 Y120.328 E86.90385
G0 F2625 X113.659 Y120.024
G1 F900 X155.45 Y120.024 E88.29592
G1 F600 E87.29592
G0 F2625 X156.698 Y121.273
G1 F600 E88.29592
G1 F900 X156.698 Y158.728 E89.54356
G0 F2625 X157.06 Y158.365
G1 F900 X112.058 Y158.365 E91.0426
G0 F2625 X111.689 Y157.994
G1 F900 X111.689 Y121.995 E92.24173
G0 F2625 X111.992 Y121.691
G1 F900 X157.117 Y121.691 E93.74486
G1 F600 E92.74486
G0 F2625 X158.365 Y122.94
G1 F600 E93.74486
G1 F900 X158.365 Y157.061 E94.88145
G0 F2625 X158.727 Y156.698
G1 F900 X110.391 Y156.698 E96.49154
G0 F2625 X110.022 Y156.327
G1 F900 X110.022 Y123.662 E97.57962
G0 F2625 X110.325 Y123.358
G1 F900 X158.784 Y123.358 E99.19381
G1 F600 E98.19381
G0 F2625 X160.032 Y124.607
G1 F600 E99.19381
G1 F900 X160.032 Y155.394 E100.21933
G0 F2625 X160.394 Y155.031
G1 F900 X108.725 Y155.031 E101.94045
G0 F2625 X108.355 Y154.659
G1 F900 X108.355 Y125.329 E102.91744
G0 F2625 X108.658 Y125.025
G1 F900 X160.451 Y125.025 E104.64268
G1 F600 E103.64268
G0 F2625 X161.699 Y126.274
G1 F600 E104.64268
G1 F900 X161.699 Y153.727 E105.55715
G0 F2625 X162.061 Y153.364
G1 F900 X107.058 Y153.364 E107.38932
G0 F2625 X106.688 Y152.991
G1 F900 X106.688 Y126.996 E108.25522
G0 F2625 X106.992 Y126.692
G1 F900 X162.118 Y126.692 E110.09149
G1 F600 E109.09149
G0 F2625 X163.366 Y127.941
G1 F600 E110.09149
G1 F900 X163.366 Y152.06 E110.8949
G0 F2625 X163.728 Y151.697
G1 F900 X105.392 Y151.697 E112.8381
G0 F2625 X105.021 Y151.324
G1 F900 X105.021 Y128.663 E113.59294
G0 F2625 X105.325 Y128.359
G1 F900 X163.785 Y128.359 E115.54027
G1 F600 E114.54027
G0 F2625 X165.033 Y129.608
G1 F600 E115.54027
G1 F900 X165.033 Y150.393 E116.23262
G0 F2625 X165.395 Y150.03
G1 F900 X103.726 Y150.03 E118.28684
G0 F2625 X103.354 Y149.656
G1 F900 X103.354 Y130.33 E118.9306
G0 F2625 X103.658 Y130.026
G1 F900 X165.452 Y130.026 E120.98898
G1 F600 E119.98898
G0 F2625 X166.7 Y131.275
G1 F600 E120.98898
G1 F900 X166.7 Y148.726 E121.57027
G0 F2625 X167.062 Y148.363
G1 F900 X102.059 Y148.363 E123.73555
G0 F2625 X101.687 Y147.989
G1 F900 X101.687 Y131.997 E124.26825
G0 F2625 X101.991 Y131.693
G1 F900 X167.119 Y131.693 E126.43768
G1 F600 E125.43768
G0 F2625 X168.367 Y132.942
G1 F600 E126.43768
G1 F900 X168.367 Y147.059 E126.90793
G0 F2625 X168.729 Y146.696
G1 F900 X100.393 Y146.696 E129.18422
G0 F2625 X100.02 Y146.321
G1 F900 X100.02 Y133.664 E129.60583
G0 F2625 X100.324 Y133.36
G1 F900 X168.786 Y133.36 E131.88633
G1 F600 E130.88633
G0 F2625 X170.034 Y134.609
G1 F600 E131.88633
G1 F900 X170.034 Y145.392 E132.24551
G0 F2625 X170.396 Y145.029
G1 F900 X98.727 Y145.029 E134.63283
G0 F2625 X98.353 Y144.653
G1 F900 X98.353 Y135.331 E134.94335
G0 F2625 X98.657 Y135.027
G1 F900 X170.453 Y135.027 E137.3349
G1 F600 E136.3349
G0 F2625 X171.701 Y136.276
G1 F600 E137.3349
G1 F900 X171.701 Y143.725 E137.58303
G0 F2625 X172.063 Y143.362
G1 F900 X97.06 Y143.362 E140.08141
G0 F2625 X96.686 Y142.986
G1 F900 X96.686 Y136.998 E140.28087
G0 F2625 X96.99 Y136.694
G1 F900 X172.12 Y136.694 E142.78348
G1 F600 E141.78348
G0 F2625 X173.368 Y137.943
G1 F600 E142.78348
G1 F900 X173.368 Y142.058 E142.92055
G0 F2625 X173.73 Y141.695
G1 F900 X95.394 Y141.695 E145.52995
G0 F2625 X95.019 Y141.318
G1 F900 X95.019 Y138.665 E145.61832
G0 F2625 X95.323 Y138.361
G1 F900 X173.787 Y138.361 E148.23199
G1 F600 E147.23199
G0 F2625 X175.035 Y139.61
G1 F600 E148.23199
G1 F900 X175.035 Y140.391 E148.258
G0 F2625 X175.397 Y140.028
G1 F900 X93.727 Y140.028 E150.97846
G1 F600 E149.97846
;MESH:
G0 F2625 X137.963 Y179.282
G0 X138.975 Y180.292
G0 X179.345 Y140
G0 X179.245 Y140
;TYPE:WALL-INNER
G1 F600 E150.97846
G1 F900 X139.099 Y99.853 E152.86968
G1 X138.923 Y99.677 E152.87797
G1 X139.099 Y99.501 E152.88332
G1 X142.104 Y96.497 E153.02486
G1 X185.607 Y140 E155.07419
G1 X142.135 Y183.472 E157.12207
G1 X138.955 Y180.292 E157.27187
G1 X179.245 Y140 E159.1699
G0 F2625 X178.538 Y140
;TYPE:WALL-OUTER
G1 F900 X138.391 Y99.853 E161.06114
G1 X138.215 Y99.677 E161.06944
G1 X138.391 Y99.501 E161.07478
G1 X142.104 Y95.789 E161.24967
G1 X186.315 Y140 E163.33236
G1 X142.135 Y184.18 E165.41359
G1 X138.247 Y180.292 E165.59675
G1 X178.538 Y140 E167.4948
G0 F2625 X178.362 Y139.824
G0 X178.787 Y139.402
G0 X179.938 Y140
;TYPE:SKIN
G1 F900 X139.617 Y99.677 E169.39429
G1 X142.104 Y97.191 E169.51142
G1 X184.913 Y140 E171.52807
G1 X142.135 Y182.778 E173.54325
G1 X139.649 Y180.292 E173.66036
G1 X179.938 Y140 E175.55836
G0 F2625 X184.57 Y140.022
G1 F900 X142.08 Y97.532 E177.55998
G0 F2625 X141.726 Y97.886
G1 F900 X184.216 Y140.376 E179.5616
G0 F2625 X183.863 Y140.729
G1 F900 X141.373 Y98.239 E181.56322
G0 F2625 X141.019 Y98.593
G1 F900 X183.509 Y141.083 E183.56483
G0 F2625 X183.156 Y141.436
G1 F900 X140.666 Y98.946 E185.56645
G0 F2625 X140.312 Y99.3
G1 F900 X182.802 Y141.79 E187.56807
G0 F2625 X182.449 Y142.144
G1 F900 X139.959 Y99.653 E189.56971
G1 X139.871 Y99.565
G0 F2625 X179.926 Y140.328
G1 F900 X182.095 Y142.497 E189.67189
G0 F2625 X181.741 Y142.851
G1 F900 X179.573 Y140.682 E189.77404
G0 F2625 X179.219 Y141.035
G1 F900 X181.388 Y143.204 E189.87622
G0 F2625 X181.034 Y143.558
G1 F900 X178.866 Y141.389 E189.97837
G0 F2625 X178.512 Y141.743
G1 F900 X180.681 Y143.911 E190.08052
G0 F2625 X180.327 Y144.265
G1 F900 X178.159 Y142.096 E190.18268
G0 F2625 X177.805 Y142.45
G1 F900 X179.974 Y144.618 E190.28483
G0 F2625 X179.62 Y144.972
G1 F900 X177.451 Y142.803 E190.38701
G0 F2625 X177.098 Y143.157
G1 F900 X179.267 Y145.325 E190.48916
G0 F2625 X178.913 Y145.679
G1 F900 X176.744 Y143.51 E190.59134
G0 F2625 X176.391 Y143.864
G1 F900 X178.56 Y146.033 E190.69352
G0 F2625 X178.206 Y146.386
G1 F900 X176.037 Y144.217 E190.79569
G0 F2625 X175.684 Y144.571
G1 F900 X177.852 Y146.74 E190.89785
G0 F2625 X177.499 Y147.093
G1 F900 X175.33 Y144.925 E191
G0 F2625 X174.977 Y145.278
G1 F900 X177.145 Y147.447 E191.10215
G0 F2625 X176.792 Y147.8
G1 F900 X174.623 Y145.632 E191.20431
G0 F2625 X174.27 Y145.985
G1 F900 X176.438 Y148.154 E191.30646
G0 F2625 X176.085 Y148.507
G1 F900 X173.916 Y146.339 E191.40861
G0 F2625 X173.562 Y146.692
G1 F900 X175.731 Y148.861 E191.51079
G0 F2625 X175.378 Y149.215
G1 F900 X173.209 Y147.046 E191.61297
G0 F2625 X172.855 Y147.399
G1 F900 X175.024 Y149.568 E191.71515
G0 F2625 X174.67 Y149.922
G1 F900 X172.502 Y147.753 E191.8173
G0 F2625 X172.148 Y148.107
G1 F900 X174.317 Y150.275 E191.91945
G0 F2625 X173.963 Y150.629
G1 F900 X171.795 Y148.46 E192.02161
G0 F2625 X171.441 Y148.814
G1 F900 X173.61 Y150.982 E192.12376
G0 F2625 X173.256 Y151.336
G1 F900 X171.088 Y149.167 E192.22591
G0 F2625 X170.734 Y149.521
G1 F900 X172.903 Y151.689 E192.32807
G0 F2625 X172.549 Y152.043
G1 F900 X170.38 Y149.874 E192.43025
G0 F2625 X170.027 Y150.228
G1 F900 X172.196 Y152.397 E192.53242
G0 F2625 X171.842 Y152.75
G1 F900 X169.673 Y150.581 E192.6346
G0 F2625 X169.32 Y150.935
G1 F900 X171.488 Y153.104 E192.73675
G0 F2625 X171.135 Y153.457
G1 F900 X168.966 Y151.289 E192.83891
G0 F2625 X168.613 Y151.642
G1 F900 X170.781 Y153.811 E192.94106
G0 F2625 X170.428 Y154.164
G1 F900 X168.259 Y151.996 E193.04321
G0 F2625 X167.906 Y152.349
G1 F900 X170.074 Y154.518 E193.14537
G0 F2625 X169.721 Y154.871
G1 F900 X167.552 Y152.703 E193.24752
G0 F2625 X167.198 Y153.056
G1 F900 X169.367 Y155.225 E193.3497
G0 F2625 X169.014 Y155.579
G1 F900 X166.845 Y153.41 E193.45188
G0 F2625 X166.492 Y153.764
G1 F900 X168.66 Y155.932 E193.55401
G0 F2625 X168.306 Y156.286
G1 F900 X166.138 Y154.118 E193.65614
G0 F2625 X165.785 Y154.471
G1 F900 X167.953 Y156.639 E193.75827
G0 F2625 X167.599 Y156.993
G1 F900 X165.431 Y154.825 E193.8604
G0 F2625 X165.078 Y155.178
G1 F900 X167.246 Y157.346 E193.96253
G0 F2625 X166.892 Y157.7
G1 F900 X164.724 Y155.532 E194.06466
G0 F2625 X164.371 Y155.885
G1 F900 X166.539 Y158.053 E194.16679
G0 F2625 X166.185 Y158.407
G1 F900 X164.017 Y156.239 E194.26892
