;Generated by Cura LulzBot Edition GCodeWriter Version: 3.6.8
;FLAVOR:Marlin
;TIME:3527
;Filament used: 1.57797m
;Layer height: 0.25
;Generated with Cura_SteamEngine 3.6.8
M82 ;absolute extrusion mode
M221 S100
;This G-Code has been generated specifically for the LulzBot TAZ 6 with standard extruder
M73 P0 ; clear GLCD progress bar
M75 ; start GLCD timer
G26 ; clear potential 'probe fail' condition
M107 ; disable fans
M420 S0 ; disable previous leveling matrix
G90 ; absolute positioning
M82 ; set extruder to absolute mode
G92 E0 ; set extruder position to 0
M140 S60 ; start bed heating up
M109 R140 ; soften filament before homing Z
G28 ; Home all axis
G1 E-30 F100 ; retract filament
M109 R140 ; wait for extruder to reach wiping temp
G1 X-15 Y100 F3000 ; move above wiper pad
G1 Z1 ; push nozzle into wiper
G1 X-17 Y95 F1000 ; slow wipe
G1 X-17 Y90 F1000 ; slow wipe
G1 X-17 Y85 F1000 ; slow wipe
G1 X-15 Y90 F1000 ; slow wipe
G1 X-17 Y80 F1000 ; slow wipe
G1 X-15 Y95 F1000 ; slow wipe
G1 X-17 Y75 F2000 ; fast wipe
G1 X-15 Y65 F2000 ; fast wipe
G1 X-17 Y70 F2000 ; fast wipe
G1 X-15 Y60 F2000 ; fast wipe
G1 X-17 Y55 F2000 ; fast wipe
G1 X-15 Y50 F2000 ; fast wipe
G1 X-17 Y40 F2000 ; fast wipe
G1 X-15 Y45 F2000 ; fast wipe
G1 X-17 Y35 F2000 ; fast wipe
G1 X-15 Y40 F2000 ; fast wipe
G1 X-17 Y70 F2000 ; fast wipe
G1 X-15 Y30 Z2 F2000 ; fast wipe
G1 X-17 Y35 F2000 ; fast wipe
G1 X-15 Y25 F2000 ; fast wipe
G1 X-17 Y30 F2000 ; fast wipe
G1 X-15 Y25 Z1.5 F1000 ; slow wipe
G1 X-17 Y23 F1000 ; slow wipe
G1 Z10 ; raise extruder
M109 R140 ; wait for extruder to reach probe temp
G1 X-9 Y-9 ; move above first probe point
M204 S100 ; set probing acceleration
G29 ; start auto-leveling sequence
M420 S1 ; activate bed level matrix
M425 Z			     ; use measured Z backlash for compensation
M425 Z F0		     ; turn off measured Z backlash compensation. (if activated in the quality settings, this command will automatically be ignored)
M204 S500 ; restore standard acceleration
G1 X0 Y0 Z15 F5000 ; move up off last probe point
G4 S1 ; pause
M400 ; wait for moves to finish
M117 Heating... ; progress indicator message on LCD
M109 R210 ; wait for extruder to reach printing temp
M190 S60 ; wait for bed to reach printing temp
G1 Z2 E0 F75 ; prime tiny bit of filament into the nozzle
M117 TAZ 6 Printing... ; progress indicator message on LCD

G92 E0
G1 F600 E-1
;LAYER_COUNT:192
;LAYER:0
M107
G0 F2625 X110.453 Y141.783 Z0.425
;TYPE:SKIRT
G1 F600 E0
G1 F900 X110.932 Y141.45 E0.01943
G1 X111.23 Y141.287 E0.03075
G1 X112.015 Y140.898 E0.05993
G1 X112.554 Y140.676 E0.07935
G1 X113.118 Y140.529 E0.09876
G1 X113.636 Y140.464 E0.11615
G1 X137.392 Y138.977 E0.90902
G1 X137.731 Y138.97 E0.92032
G1 X139.819 Y139.006 E0.98988
G1 X140.34 Y139.047 E1.00729
G1 X142.054 Y139.289 E1.06495
G1 X142.586 Y139.399 E1.08304
G1 X144.682 Y139.975 E1.15545
G1 X145.186 Y140.148 E1.1732
G1 X146.549 Y140.714 E1.22236
G1 X147.035 Y140.953 E1.2404
G1 X149.13 Y142.156 E1.32087
G1 X149.61 Y142.477 E1.34011
G1 X150.945 Y143.507 E1.39628
G1 X151.296 Y143.81 E1.41172
G1 X152.382 Y144.855 E1.46192
G1 X152.663 Y145.152 E1.47554
G1 X153.648 Y146.302 E1.52598
G1 X153.948 Y146.698 E1.54253
G1 X155.003 Y148.269 E1.60557
G1 X155.294 Y148.774 E1.62498
G1 X155.458 Y149.156 E1.63883
G1 X155.67 Y149.726 E1.65909
G1 X155.836 Y150.285 E1.67851
G1 X155.923 Y150.861 E1.69791
G1 X155.932 Y151.418 E1.71647
G1 X155.91 Y151.862 E1.73128
G1 X155.841 Y152.441 E1.7507
G1 X155.694 Y153.005 E1.77012
G1 X155.541 Y153.396 E1.7841
G1 X155.284 Y153.967 E1.80496
G1 X154.938 Y154.59 E1.8287
G1 X154.091 Y155.853 E1.87935
G1 X153.811 Y156.225 E1.89486
G1 X152.636 Y157.619 E1.95559
G1 X152.217 Y158.05 E1.97562
G1 X150.406 Y159.667 E2.05649
G1 X149.987 Y159.996 E2.07423
G1 X148.925 Y160.728 E2.1172
G1 X148.504 Y160.984 E2.13361
G1 X146.509 Y162.042 E2.20883
G1 X146.086 Y162.237 E2.22435
G1 X145.144 Y162.611 E2.25811
G1 X144.727 Y162.752 E2.27277
G1 X142.726 Y163.315 E2.34201
G1 X142.279 Y163.415 E2.35727
G1 X141.071 Y163.618 E2.39807
G1 X140.663 Y163.667 E2.41176
G1 X139.045 Y163.78 E2.46579
G1 X138.496 Y163.782 E2.48408
G1 X114.036 Y162.323 E3.3003
G1 X113.561 Y162.268 E3.31622
G1 X112.963 Y162.164 E3.33644
G1 X112.397 Y162.025 E3.35586
G1 X111.661 Y161.711 E3.38251
G1 X111.133 Y161.424 E3.40253
G1 X110.642 Y161.111 E3.42193
G1 X110.197 Y160.734 E3.44135
G1 X109.919 Y160.436 E3.45493
G1 X109.561 Y160.013 E3.47339
G1 X109.216 Y159.543 E3.49281
G1 X108.894 Y158.931 E3.51584
G1 X108.686 Y158.442 E3.53355
G1 X108.495 Y157.891 E3.55297
G1 X108.372 Y157.236 E3.57517
G1 X108.313 Y156.692 E3.5934
G1 X108.288 Y156.219 E3.60918
G1 X108.324 Y146.057 E3.94768
G1 X108.366 Y145.476 E3.96708
G1 X108.496 Y144.876 E3.98753
G1 X108.603 Y144.511 E4.0002
G1 X108.805 Y143.965 E4.01959
G1 X109.22 Y143.241 E4.04739
G1 X109.656 Y142.629 E4.07242
G1 X110.025 Y142.179 E4.09181
G1 X110.453 Y141.783 E4.11123
G0 F2625 X110.819 Y142.132
G1 F900 X111.452 Y141.735 E4.13612
G1 X112.237 Y141.346 E4.1653
G1 X112.744 Y141.139 E4.18354
G1 X113.275 Y141.009 E4.20175
G1 X113.668 Y140.963 E4.21493
G1 X137.424 Y139.476 E5.0078
G1 X137.723 Y139.47 E5.01777
G1 X139.811 Y139.506 E5.08733
G1 X140.27 Y139.542 E5.10266
G1 X141.984 Y139.784 E5.16032
G1 X142.454 Y139.881 E5.17631
G1 X144.55 Y140.457 E5.24872
G1 X144.994 Y140.61 E5.26436
G1 X146.357 Y141.176 E5.31352
G1 X146.786 Y141.387 E5.32945
G1 X148.881 Y142.59 E5.40992
G1 X149.305 Y142.873 E5.4269
G1 X150.64 Y143.903 E5.48307
G1 X150.949 Y144.17 E5.49667
G1 X152.035 Y145.215 E5.54687
G1 X152.283 Y145.478 E5.55891
G1 X153.268 Y146.628 E5.60935
G1 X153.533 Y146.976 E5.62392
G1 X154.588 Y148.547 E5.68696
G1 X154.859 Y149.023 E5.7052
G1 X154.99 Y149.331 E5.71635
G1 X155.202 Y149.901 E5.73661
G1 X155.355 Y150.426 E5.75482
G1 X155.429 Y150.969 E5.77308
G1 X155.432 Y151.394 E5.78724
G1 X155.41 Y151.838 E5.80204
G1 X155.343 Y152.381 E5.82027
G1 X155.198 Y152.909 E5.83851
G1 X155.085 Y153.191 E5.84863
G1 X154.828 Y153.762 E5.86949
G1 X154.522 Y154.312 E5.89045
G1 X153.675 Y155.575 E5.94111
G1 X153.428 Y155.903 E5.95478
G1 X152.253 Y157.297 E6.01551
G1 X151.884 Y157.677 E6.03316
G1 X150.073 Y159.294 E6.11403
G1 X149.703 Y159.585 E6.12971
G1 X148.641 Y160.317 E6.17267
G1 X148.27 Y160.542 E6.18713
G1 X146.275 Y161.6 E6.26235
G1 X145.902 Y161.772 E6.27603
G1 X144.96 Y162.146 E6.30979
G1 X144.592 Y162.271 E6.32274
G1 X142.591 Y162.834 E6.39198
G1 X142.196 Y162.922 E6.40546
G1 X140.988 Y163.125 E6.44626
G1 X140.628 Y163.168 E6.45834
G1 X139.01 Y163.281 E6.51237
G1 X138.526 Y163.283 E6.52849
G1 X114.066 Y161.824 E7.34471
G1 X113.646 Y161.776 E7.35879
G1 X113.048 Y161.672 E7.37901
G1 X112.517 Y161.539 E7.39724
G1 X111.9 Y161.272 E7.41964
G1 X111.372 Y160.985 E7.43966
G1 X110.912 Y160.689 E7.45788
G1 X110.499 Y160.329 E7.47613
G1 X110.301 Y160.113 E7.48589
G1 X109.943 Y159.69 E7.50435
G1 X109.62 Y159.247 E7.52261
G1 X109.354 Y158.735 E7.54183
G1 X109.146 Y158.246 E7.55953
G1 X108.969 Y157.728 E7.57776
G1 X108.869 Y157.182 E7.59625
G1 X108.81 Y156.638 E7.61448
G1 X108.788 Y156.221 E7.62839
G1 X108.824 Y146.059 E7.96689
G1 X108.866 Y145.513 E7.98513
G1 X108.975 Y145.017 E8.00205
G1 X109.082 Y144.652 E8.01472
G1 X109.274 Y144.139 E8.03297
G1 X109.627 Y143.531 E8.05638
G1 X110.063 Y142.919 E8.08141
G1 X110.412 Y142.498 E8.09963
G1 X110.819 Y142.132 E8.11786
G0 F2625 X111.182 Y142.484
G1 F900 X111.674 Y142.183 E8.13708
G1 X112.459 Y141.794 E8.16626
G1 X112.932 Y141.604 E8.18324
G1 X113.429 Y141.491 E8.20022
G1 X113.699 Y141.462 E8.20926
G1 X137.455 Y139.975 E9.00213
G1 X137.714 Y139.969 E9.01076
G1 X139.802 Y140.005 E9.08032
G1 X140.2 Y140.037 E9.09362
G1 X141.914 Y140.279 E9.15128
G1 X142.321 Y140.363 E9.16513
G1 X144.417 Y140.939 E9.23753
G1 X144.802 Y141.072 E9.2511
G1 X146.165 Y141.638 E9.30026
G1 X146.537 Y141.821 E9.31407
G1 X148.632 Y143.024 E9.39454
G1 X148.999 Y143.269 E9.40924
G1 X150.334 Y144.299 E9.46541
G1 X150.602 Y144.53 E9.4772
G1 X151.688 Y145.575 E9.5274
G1 X151.903 Y145.803 E9.53784
G1 X152.888 Y146.953 E9.58827
G1 X153.118 Y147.255 E9.60092
G1 X154.173 Y148.826 E9.66396
G1 X154.521 Y149.505 E9.68937
G1 X154.733 Y150.075 E9.70963
G1 X154.873 Y150.565 E9.7266
G1 X154.934 Y151.071 E9.74358
G1 X154.933 Y151.369 E9.75351
G1 X154.911 Y151.813 E9.76831
G1 X154.846 Y152.318 E9.78528
G1 X154.629 Y152.986 E9.80867
G1 X154.372 Y153.557 E9.82953
G1 X154.107 Y154.033 E9.84768
G1 X153.26 Y155.296 E9.89833
G1 X153.046 Y155.581 E9.9102
G1 X151.871 Y156.975 E9.97093
G1 X151.551 Y157.304 E9.98622
G1 X149.74 Y158.921 E10.06709
G1 X149.419 Y159.173 E10.08069
G1 X148.357 Y159.905 E10.12365
G1 X148.036 Y160.1 E10.13616
G1 X146.041 Y161.158 E10.21138
G1 X145.717 Y161.308 E10.22328
G1 X144.775 Y161.682 E10.25704
G1 X144.456 Y161.79 E10.26826
G1 X142.455 Y162.353 E10.3375
G1 X142.114 Y162.429 E10.34914
G1 X140.906 Y162.632 E10.38994
G1 X140.593 Y162.669 E10.40044
G1 X138.975 Y162.782 E10.45447
G1 X138.555 Y162.784 E10.46846
G1 X114.095 Y161.325 E11.28468
G1 X113.732 Y161.283 E11.29685
G1 X113.134 Y161.179 E11.31707
G1 X112.641 Y161.053 E11.33402
G1 X112.139 Y160.832 E11.35229
G1 X111.611 Y160.545 E11.37231
G1 X111.184 Y160.268 E11.38926
G1 X110.682 Y159.79 E11.41235
G1 X110.324 Y159.367 E11.43081
G1 X110.027 Y158.953 E11.44778
G1 X109.814 Y158.539 E11.46329
G1 X109.606 Y158.05 E11.48099
G1 X109.444 Y157.567 E11.49796
G1 X109.366 Y157.128 E11.51281
G1 X109.307 Y156.584 E11.53104
G1 X109.288 Y156.222 E11.54311
G1 X109.324 Y146.06 E11.88162
G1 X109.366 Y145.553 E11.89856
G1 X109.455 Y145.158 E11.91205
G1 X109.562 Y144.793 E11.92472
G1 X109.743 Y144.317 E11.94168
G1 X110.034 Y143.821 E11.96084
G1 X110.47 Y143.209 E11.98587
G1 X110.797 Y142.819 E12.00282
G1 X111.182 Y142.484 E12.01982
G1 F600 E11.01982
;MESH:
G0 F2625 X115.451 Y143.957
G0 X115.493 Y143.97
G0 X130.145 Y149.024
G0 X130.186 Y149.037
G0 X131.342 Y150.186
G0 X131.428 Y150.28
G0 X131.328 Y150.28
;TYPE:WALL-INNER
G1 F600 E12.01982
G1 F900 X131.328 Y150.19 E12.02282
G1 X131.329 Y150.172 E12.02342
G1 X131.675 Y150.19 E12.03496
G1 X131.763 Y150.204 E12.03758
G1 X131.997 Y150.243 E12.04549
G1 X132.046 Y150.264 E12.04726
G1 X132.087 Y150.304 E12.04917
G1 X132.16 Y150.42 E12.05373
G1 X132.2 Y150.51 E12.05702
G1 X132.246 Y150.654 E12.06205
G1 X132.278 Y150.79 E12.0667
G1 X132.305 Y150.983 E12.0732
G1 X132.319 Y151.208 E12.08071
G1 X132.318 Y151.449 E12.08873
G1 X132.302 Y151.666 E12.09598
G1 X132.273 Y151.852 E12.10225
G1 X132.233 Y152.018 E12.10794
G1 X132.192 Y152.136 E12.1121
G1 X132.147 Y152.233 E12.11566
G1 X132.063 Y152.352 E12.12051
G1 X131.99 Y152.41 E12.12362
G1 X131.894 Y152.448 E12.12706
G1 X131.813 Y152.464 E12.12981
G1 X131.797 Y152.467 E12.13035
G1 X131.597 Y152.491 E12.13706
G1 X131.326 Y152.496 E12.14609
G1 X131.326 Y152.467
G1 X131.326 Y152.45 E12.14664
G1 X131.328 Y150.28 E12.21893
G0 F2625 X131.428 Y150.28
G0 X130.914 Y152.844
G0 X130.826 Y152.675
;TYPE:WALL-OUTER
G1 F900 X130.826 Y152.67 E12.21909
G1 X130.829 Y149.805 E12.31453
G1 X130.829 Y149.685 E12.31853
G1 X130.908 Y149.672 E12.32119
G1 X131.094 Y149.665 E12.32739
G1 X131.214 Y149.668 E12.33139
G1 X131.428 Y149.674 E12.33852
G1 X131.725 Y149.692 E12.34843
G1 X131.994 Y149.73 E12.35748
G1 X132.132 Y149.761 E12.3622
G1 X132.228 Y149.795 E12.36559
G1 X132.313 Y149.84 E12.36879
G1 X132.392 Y149.9 E12.3721
G1 X132.468 Y149.978 E12.37572
G1 X132.537 Y150.07 E12.37955
G1 X132.605 Y150.19 E12.38415
G1 X132.669 Y150.335 E12.38943
G1 X132.728 Y150.518 E12.39583
G1 X132.77 Y150.701 E12.40209
G1 X132.803 Y150.933 E12.40989
G1 X132.819 Y151.194 E12.4186
G1 X132.818 Y151.472 E12.42786
G1 X132.8 Y151.719 E12.43611
G1 X132.764 Y151.951 E12.44393
G1 X132.714 Y152.157 E12.45099
G1 X132.656 Y152.326 E12.45695
G1 X132.587 Y152.472 E12.46233
G1 X132.507 Y152.6 E12.46735
G1 X132.426 Y152.698 E12.47159
G1 X132.332 Y152.783 E12.47581
G1 X132.24 Y152.844 E12.47949
G1 X132.136 Y152.895 E12.48335
G1 X132.02 Y152.932 E12.4874
G1 X131.874 Y152.961 E12.49236
G1 X131.627 Y152.991 E12.50065
G1 X131.198 Y152.999 E12.51494
G1 X131.193 Y152.999 E12.51511
G1 X130.877 Y153.014 E12.52564
G1 X130.853 Y152.999 E12.52659
G1 X130.821 Y152.942 E12.52877
G1 X130.813 Y152.853 E12.53174
G1 X130.826 Y152.675 E12.53769
G0 F2625 X130.826 Y152.67
G0 X130.826 Y152.425
G0 X130.914 Y152.845
G0 X131.817 Y151.591
;TYPE:SKIN
G1 F900 X131.818 Y151.054 E12.55557
G1 X131.829 Y151.238 E12.56171
G1 X131.828 Y151.441 E12.56848
G1 X131.817 Y151.591 E12.57349
G0 F2625 X131.807 Y151.59
G1 F600 E11.57349
G0 F2625 X132.286 Y150.985
G0 X134.785 Y150.719
G0 X137.041 Y149.177
G0 X137.472 Y149.079
G0 X144.16 Y149.009
G0 X144.174 Y149.107
;TYPE:WALL-INNER
G1 F600 E12.57349
G1 F900 X143.905 Y149.19 E12.58286
G1 X143.691 Y149.32 E12.5912
G1 X143.511 Y149.481 E12.59925
G1 X143.359 Y149.671 E12.60735
G1 X143.227 Y149.884 E12.6157
G1 X143.126 Y150.094 E12.62346
G1 X143.113 Y150.121 E12.62446
G1 X143.076 Y150.223 E12.62808
G1 X142.983 Y150.476 E12.63705
G1 X142.904 Y150.176 E12.63981
G1 X142.899 Y150.159
G1 X142.85 Y150.015 E12.64244
G1 X142.827 Y149.95 E12.64326
G1 X142.726 Y149.741 E12.65099
G1 X142.578 Y149.541 E12.65928
G1 X142.387 Y149.37 E12.66782
G1 X142.168 Y149.24 E12.6763
G1 X141.967 Y149.164 E12.68346
G1 X141.73 Y149.112 E12.69154
G1 X141.476 Y149.101 E12.70001
G1 X141.224 Y149.141 E12.70851
G1 X140.98 Y149.235 E12.71722
G1 X140.75 Y149.402 E12.72669
G1 X140.636 Y149.55 E12.73291
G1 X140.615 Y149.577 E12.73405
G1 X140.599 Y149.597 E12.7349
G1 X140.551 Y149.527 E12.73503
G1 X140.346 Y149.328 E12.74186
G1 X140.118 Y149.194 E12.75066
G1 X139.871 Y149.115 E12.7593
G1 X139.59 Y149.098 E12.76868
G1 X139.33 Y149.157 E12.77756
G1 X139.111 Y149.256 E12.78557
G1 X138.916 Y149.39 E12.79345
G1 X138.742 Y149.551 E12.80134
G1 X138.657 Y149.652 E12.80574
G1 X138.629 Y149.685 E12.80718
G1 X138.607 Y149.659
G1 X138.453 Y149.481 E12.81216
G1 X138.276 Y149.328 E12.81903
G1 X138.065 Y149.203 E12.8272
G1 X137.83 Y149.125 E12.83545
G1 X137.572 Y149.095 E12.8441
G1 X137.305 Y149.129 E12.85307
G1 X137.06 Y149.212 E12.86168
G1 X136.832 Y149.344 E12.87046
G1 X136.647 Y149.514 E12.87883
G1 X136.49 Y149.728 E12.88767
G1 X136.397 Y149.985 E12.89677
G1 X136.366 Y150.227 E12.9049
G1 X136.383 Y150.47 E12.91302
G1 X136.44 Y150.699 E12.92088
G1 X136.528 Y150.928 E12.92905
G1 X136.647 Y151.161 E12.93776
G1 X137.123 Y151.994 E12.96972
G1 X137.213 Y152.129 E12.97513
G1 X137.059 Y152.341 E12.98385
G1 X136.848 Y152.703 E12.99781
G1 X136.846 Y152.706 E12.99793
G1 X136.796 Y152.792 E13.00125
G1 X136.743 Y152.882 E13.00472
G1 X136.627 Y152.693 E13.00826
G1 X136.42 Y152.459 E13.01681
G1 X136.417 Y152.457 E13.01693
G1 X136.176 Y152.269 E13.02711
G1 X135.905 Y152.123 E13.03737
G1 X135.609 Y152.026 E13.04774
G1 X135.303 Y151.986 E13.05802
G1 X135.092 Y151.994 E13.06506
G1 X134.993 Y151.997 E13.06836
G1 X134.87 Y152.025 E13.07256
G1 X134.773 Y152.047 E13.07587
G1 X134.78 Y151.975 E13.07618
G1 X134.806 Y151.742 E13.08097
G1 X134.809 Y151.643 E13.08427
G1 X134.821 Y151.357 E13.09381
G1 X134.812 Y150.971 E13.10667
G1 X134.756 Y150.441 E13.12442
G1 X134.691 Y150.115 E13.13549
G1 X134.606 Y149.811 E13.14601
G1 X134.498 Y149.52 E13.15635
G1 X134.37 Y149.248 E13.16636
G1 X134.221 Y148.992 E13.17623
G1 X134.05 Y148.754 E13.18599
G1 X133.866 Y148.544 E13.19529
G1 X133.575 Y148.282 E13.20833
G1 X133.343 Y148.122 E13.21772
G1 X133.101 Y147.992 E13.22687
G1 X132.856 Y147.894 E13.23566
G1 X132.589 Y147.814 E13.24495
G1 X132.288 Y147.752 E13.25518
G1 X131.959 Y147.707 E13.26625
G1 X131.576 Y147.678 E13.27904
G1 X131.154 Y147.668 E13.2931
G1 X130.723 Y147.672 E13.30746
G1 X130.149 Y147.654 E13.32659
G1 X129.92 Y147.67 E13.33423
G1 X129.727 Y147.709 E13.34079
G1 X129.506 Y147.779 E13.34852
G1 X129.287 Y147.895 E13.35677
G1 X129.092 Y148.056 E13.36519
G1 X128.94 Y148.258 E13.37361
G1 X128.85 Y148.46 E13.38098
G1 X128.815 Y148.628 E13.3867
G1 X128.803 Y148.683 E13.38857
G1 X128.798 Y148.795 E13.39231
G1 X128.791 Y148.913 E13.39624
G1 X128.799 Y149.008 E13.39942
G1 X128.823 Y149.259 E13.40782
G1 X128.831 Y149.344 E13.41066
G1 X128.835 Y149.511 E13.41623
G1 X128.835 Y149.531 E13.41689
G1 X128.829 Y149.797 E13.42576
